X:18954
T:Xiraldilla (CT 039)
R:Xiraldilla
C:Tradicional
S:Msica Tradicional Asturiana, (C) Tello & Tito. Asturies, 2001.
S:http://pagina.de/MusTradAst <telloytito@asturies.org>
N:Xiraldilla, dictada por Alfredo Garca Muiz, de diez y ocho aos, de Llanuces, ayuntamiento de Quirs.
O:Llanuces (Quirs)
A:Asturies
Z:Cancioneru de Torner 039
M:3/8
L:1/8
Q:3/8=88
W:Yo si voi a Cuadonga
W:nun voi por ninguna cosa;
W:voi por ver la mio morena
W:que tien cara de rosa.
W:
W:Y a Cuadonga marcho maana,
W:y a Cuadonga prenda del alma.
K:C
|GGG|GcB|(cB)A|AAA|ddc|d2c-|c2z|
|GGG|GcB|(cB)A|AAA|ddc|d2c||
GcB|(cB)A|GAA|(BA)G|GcB|(cB)A|GAA|(BA)G-|G2z|
